X:93
T:93. Gospel Groove (4ths CCW) — stride LH + chord stabs RH
T:LH walks root/5th, RH stabs on off-beats — upbeat gospel feel
C:Full 7-mode cycle
M:4/4
L:1/8
Q:1/4=112
%%score {V1 V2}
V:V1 clef=treble
V:V2 clef=bass
K:C
[V:V1] "C" z z z [cegc'] z z z [cegc'] | "G" z z z [gbd'g'] z z z [gbd'g'] | "Dm" z z z [dfad'] z z z [dfad'] | "Am" z z z [ac'e'a'] z z z [ac'e'a'] | "Em" z z z [egbe'] z z z [egbe'] | "B°" z z z [Bdfb] z z z [Bdfb] | "F" z z z [fac'f'] z z z [fac'f'] | "C" z z z [cegc'] z z z [cegc'] |]
[V:V2] "_8"C,2 z2 G,2 z2 | "_8"G,2 z2 D,2 z2 | "_8"D,2 z2 A,2 z2 | "_8"A,2 z2 E,2 z2 | "_8"E,2 z2 B,2 z2 | "_8"B,,2 z2 F,2 z2 | "_8"F,2 z2 C2 z2 | "_8"C,2 z2 G,2 z2 |]

